!!!COM: Haydn, Franz Joseph
!!!OPR: String Quartet in B-flat Major
!!!ONM: Opus 50, No. 1
!!!OTL: Affettuoso 
!!!OMV: 1
!!!SCT: H III:44
!!!SCA: Thematisch-bibliographisches Werkevererzeichnis (A. van Hoboken)
!!!YOR: Richault Edition, volume 6
!!!EED: Frances Bennion
!!!ENC: Frances Bennion
!!!CDT: 1732/3/31/-1809/5/31/
!!!OCY: Österreich
!!!YEC: Copyright (c) 1994, 2000 Center for Computer Assisted Research in the Humanities
!!!YEM: Rights to all derivative editions reserved.
!!!YEM: Refer to licensing agreement for further details.
!!!YEN: United States of America
**kern	**kern	**kern	**kern
*k[b-e-]	*k[b-e-]	*k[b-e-]	*k[b-e-]
*B-:	*B-:	*B-:	*B-:
*clefF	*clefF	*clefC3	*clefF4
*M4/4	*M4/4	*M4/4	*M4/4
*tb24	*tb24	*tb24	*tb24
=1	=1	=1	=1
1r	1r	1r	4BB-
.	.	.	4BB-
.	.	.	4BB-
.	.	.	4BB-
=2	=2	=2	=2
1r	1r	1r	4BB-
.	.	.	4BB-
.	.	.	4BB-
.	.	.	4BB-
=3	=3	=3	=3
[2ee-	1a	[2c	4BB-
.	.	.	4BB-
8ee-]	.	8c]	4BB-
16ff	.	16d	.
16gg	.	16e-	.
8ff	.	8d	4BB-
8ee-	.	8c	.
=4	=4	=4	=4
4dd	4b-	4B-	4BB-
2.r	2.r	2.r	4BB-
.	.	.	4BB-
.	.	.	4BB-
=5	=5	=5	=5
[2gg	[2ee-	1a	4BB-
.	.	.	4BB-
8gg]	8ee-]	.	4BB-
16aa	16ff	.	.
16bb-	16gg	.	.
8aa	8ff	.	4BB-
8gg	8ee-	.	.
=6	=6	=6	=6
4ff	4dd	4b-	4BB-
2r	4r	2.r	2.r
.	4r	.	.
12bb-	12d	.	.
12ccc	12e-	.	.
12ddd	12f	.	.
=7	=7	=7	=7
12ccc	12e-	1r	2.r
12bb-	12d	.	.
12aa	12c	.	.
4bb-	4d	.	.
4r	2r	.	.
12ddd	.	.	12B-
12eee-	.	.	12c
12fff	.	.	12d
=8	=8	=8	=8
12eee-	1r	1r	12c
12ddd	.	.	12B-
12ccc	.	.	12A
4ddd	.	.	4B-
4r	.	.	2r
12ddd	.	.	.
12eee-	.	.	.
12fff	.	.	.
=9	=9	=9	=9
12eee-	1a	2.c	2.F
12ddd	.	.	.
12ccc	.	.	.
12bb-	.	.	.
12aa	.	.	.
12gg	.	.	.
4ff	.	.	.
8ee-	.	4a	4F#
16dd	.	.	.
16ee-	.	.	.
=10	=10	=10	=10
2ee-	2cc	2a	2.G
4dd	4b-	4b-	.
12b	4r	4r	4r
12cc	.	.	.
12ee-	.	.	.
=11	=11	=11	=11
12gg	4c	4g	4E-
12ff	.	.	.
12ee-	.	.	.
12dd	4r	4r	4r
12cc	.	.	.
12b-	.	.	.
12a	12c	4e-	4F
12g	12d	.	.
12f	12e-	.	.
12e-	12f	4r	4r
12d	12g	.	.
12c	12a	.	.
=12	=12	=12	=12
4B-	4b-	4d	4BB-
2.r	2.r	2.r	4BB-
.	.	.	4BB-
.	.	.	4BB-
=13	=13	=13	=13
1r	1r	1r	4BB-
.	.	.	4BB-
.	.	.	4BB-
.	.	.	4BB-
=14	=14	=14	=14
[2ee-	2cc	2g-	4BB-
.	.	.	4BB-
8ee-]	2a	2f	4BB-
16ff	.	.	.
16gg	.	.	.
8ff	.	.	4BB-
8ee-	.	.	.
=15	=15	=15	=15
4dd	4b-	4f	4BB-
2.r	2.r	2.r	4BB-
.	.	.	4BB-
.	.	.	4BB-
=16	=16	=16	=16
4ff#	4dd	[1B-	4BB-
4.gg	4.ee-	.	4BB-
.	.	.	4BB-
16aa	16ff	.	.
16bb-	16gg	.	.
8aa	8ff	.	4BB-
8gg	8ee-	.	.
=17	=17	=17	=17
4ff	4dd	4B-]	4BB-
2.r	4b-	2.r	2.r
.	4b-	.	.
.	4b-	.	.
=18	=18	=18	=18
1r	4b-	[2f	[2d
.	4b-	.	.
.	4b-	8f]	8d]
.	.	16g	16e-
.	.	16a-	16f
.	4b-	8g	8e-
.	.	8f	8d
=19	=19	=19	=19
1r	4b-	4g	4e-
.	4b-	2.r	2.r
.	4b-	.	.
.	4b-	.	.
=20	=20	=20	=20
[2cc	4b-	1e-	1F
.	4b-	.	.
8cc]	4a	.	.
16dd	.	.	.
16ee-	.	.	.
8dd	4a	.	.
8cc	.	.	.
=21	=21	=21	=21
4b-	4b-	4d	4BB-
4bb-	2.r	2.r	2.r
4bb-	.	.	.
4bb-	.	.	.
=22	=22	=22	=22
4bb-	1r	[2f	[2d
4bb-	.	.	.
4bb-	.	8f]	8d]
.	.	16g	16e-
.	.	16a-	16f
4bb-	.	8g	8e-
.	.	8f	8d
=23	=23	=23	=23
4bb-	1r	4g	4e-
4bb-	.	2.r	2.r
4bb-	.	.	.
4bb-	.	.	.
=24	=24	=24	=24
4bb-	[2cc	1e-	1F
4bb-	.	.	.
4aa	8cc]	.	.
.	16dd	.	.
.	16ee-	.	.
4aa	8dd	.	.
.	8cc	.	.
=25	=25	=25	=25
4bb-	4b-	4d	4BB-
4r	4r	4r	4r
8cc	2a	2e-	2F
16dd	.	.	.
16ee-	.	.	.
8dd	.	.	.
8cc	.	.	.
=26	=26	=26	=26
4b-	4b-	4d	4BB-
4r	4r	4r	4r
4aa 4cc 4f	4f 4ee-	8cc	4FF
.	.	16dd	.
.	.	16ee-	.
4r	4r	8dd	4r
.	.	8cc	.
=27	=27	=27	=27
4bb- 4b- 4d	4f 4dd	4b-	4BB-
2.r	2.r	2.r	2.r
=28	=28	=28	=28
2.dd	2b-	1f#	1r
.	2a	.	.
8ee-	.	.	.
8cc	.	.	.
=29	=29	=29	=29
2cc	2.a-	2.f	1r
4b	.	.	.
4cc	4g	4e	.
=30	=30	=30	=30
4r	2f	2d	1r
2b-	.	.	.
.	2e	2c	.
4a	.	.	.
=31	=31	=31	=31
12r	2d	2.B-	1r
12g	.	.	.
12a	.	.	.
12b-	.	.	.
12a	.	.	.
12g	.	.	.
8r	2c	.	.
8e	.	.	.
8f	.	4A	.
8a	.	.	.
=32	=32	=32	=32
8cc	4r	4G	4r
8b	.	.	.
2b-	2g	2c	4E
.	.	.	4F
8a	4f	4B	4BB
16g	.	.	.
16a	.	.	.
=33	=33	=33	=33
4g	4e	4c	4C
2.r	4cc	2.r	2.r
.	4cc	.	.
.	4cc	.	.
=34	=34	=34	=34
1r	4cc	1r	1r
.	4cc	.	.
.	4cc	.	.
.	4cc	.	.
=35	=35	=35	=35
1r	4cc	2r	12B-
.	.	.	12c
.	.	.	12d
.	4cc	.	12c
.	.	.	12B-
.	.	.	12A
.	4cc	12b-	12G
.	.	12cc	12A
.	.	12dd	12B-
.	4cc	12cc	12A
.	.	12b-	12G
.	.	12a	12F
=36	=36	=36	=36
1r	4cc	12g	12E
.	.	12a	12F
.	.	12b-	12G
.	4cc	12a	12F
.	.	12g	12E
.	.	12f	12D
.	4cc	12e	12C
.	.	12f	12D
.	.	12e	12C
.	4cc	12g	12BB-
.	.	12f	12AA
.	.	12e	12GG
=37	=37	=37	=37
12aa	4cc	4f	4FF
12bb-	.	.	.
12ccc	.	.	.
12bb-	4cc	4f	2.r
12aa	.	.	.
12gg	.	.	.
12ff	4cc	4a	.
12aa	.	.	.
12ccc	.	.	.
12fff	4cc	4f	.
12ccc	.	.	.
12aa	.	.	.
=38	=38	=38	=38
4bb-	12b-	4cc	1r
.	12cc	.	.
.	12dd	.	.
4r	12cc	4cc	.
.	12b-	.	.
.	12a	.	.
12b-	12g	4cc	.
12cc	12a	.	.
12dd	12b-	.	.
12cc	12a	4cc	.
12b-	12g	.	.
12a	12f	.	.
=39	=39	=39	=39
12g	12e	4cc	1r
12a	12f	.	.
12b-	12g	.	.
12a	12f	4cc	.
12g	12e	.	.
12f	12d	.	.
12e	12c	4cc	.
12f	12d	.	.
12g	12e	.	.
12f	12d	4cc	.
12e	12c	.	.
12d	12B-	.	.
=40	=40	=40	=40
4c	4A	12a	12F
.	.	12b-	12G
.	.	12cc	12A
2.r	2.r	12b-	12G
.	.	12a	12F
.	.	12g	12E
.	.	12f	12D
.	.	12g	12E
.	.	12a	12F
.	.	12g	12E
.	.	12f	12D
.	.	12e	12C
=41	=41	=41	=41
12dd	4r	4d	4BB-
12ee	.	.	.
12ff	.	.	.
12ee	4B-	2.r	2.r
12dd	.	.	.
12cc	.	.	.
12b-	4d	.	.
12cc	.	.	.
12dd	.	.	.
12cc	4f#	.	.
12b-	.	.	.
12a	.	.	.
=42	=42	=42	=42
4g	4g	12b-	12G
.	.	12cc	12A
.	.	12dd	12B-
2.r	2.r	12cc	12A
.	.	12b-	12G
.	.	12a	12F
.	.	12g	12E
.	.	12a	12F
.	.	12b-	12G
.	.	12a	12F
.	.	12g	12E
.	.	12f	12D
=43	=43	=43	=43
12bb-	12gg	4e	4C
12ccc	12aa	.	.
12ddd	12bb-	.	.
12ccc	12aa	2.r	2.r
12bb-	12gg	.	.
12aa	12ff	.	.
12gg	12ee	.	.
12aa	12ff	.	.
12bb-	12gg	.	.
12aa	12ff	.	.
12gg	12ee	.	.
12ff	12dd	.	.
=44	=44	=44	=44
12ee	12cc	2G	1C
12ff	12dd	.	.
12gg	12ee	.	.
12ff	12dd	.	.
12ee	12cc	.	.
12dd	12b-	.	.
12cc	12a	4A	.
12dd	12b-	.	.
12cc	12a	.	.
12b-	12g	4B-	.
12a	12f	.	.
12g	12e	.	.
=45	=45	=45	=45
12a	2f	4A	4F
12ccc	.	.	.
12ccc	.	.	.
12ccc	.	4c	4A
12aa	.	.	.
12ff	.	.	.
12ee	8.g	4c	4B-
12cc	.	.	.
12ccc	.	.	.
.	16e	.	.
12ccc	4f	4c	4A
12aa	.	.	.
12ff	.	.	.
=46	=46	=46	=46
12ee	8.g	4c	4B-
12cc	.	.	.
12ccc	.	.	.
.	16e	.	.
12ccc	4f	4c	4A
12aa	.	.	.
12ff	.	.	.
12ee	8.g	4c	4B-
12cc	.	.	.
12ccc	.	.	.
.	16e	.	.
12ccc	12f	4c	4A
12aa	12a	.	.
12ff	12cc	.	.
=47	=47	=47	=47
4dd	4dd	4F	4B-
4ddd	4bb-	4r	4r
4r	4r	4r	4r
4gg	[4ff	4B	4B
=48	=48	=48	=48
4aa	4ff]	4c	4c
2bb-	2ee	2g	2c#
4aa	4ff	4f	4d
=49	=49	=49	=49
4.gg	4.dd	4r	2B-
.	.	4b-	.
16aa	16cc	.	.
16bb-	16b-	.	.
4ff	4a	4cc	2c
4ee	4g	4b-	.
=50	=50	=50	=50
4ff	12a	12a	12f
.	12ff	12cc	12a
.	12ff	12cc	12a
2.r	12ff	12cc	12a
.	12ee	12b-	12g
.	12dd	12a	12f
.	12cc	12g	12e
.	12dd	12a	12f
.	12dd	12a	12f
.	12dd	12a	12f
.	12cc	12g	12e
.	12b-	12f	12d
=51	=51	=51	=51
1r	12a	12e	12c
.	12b-	12f	12d
.	12b-	12f	12d
.	12b-	12f	12d
.	12a	12e	12c
.	12g	12d	12B-
.	12f	4c	12A
.	12e	.	12G
.	12f	.	12A
.	12g	4c	12B-
.	12f	.	12A
.	12e	.	12G
=52	=52	=52	=52
2r	12f	4c	12A
.	12e	.	12G
.	12f	.	12A
.	12g	4c	12B-
.	12f	.	12A
.	12e	.	12G
12ff	4f	4c	12A
12ee	.	.	12G
12ff	.	.	12A
12gg	12e	4c	12B-
12ff	12f	.	12A
12ee	12g	.	12G
=53	=53	=53	=53
12ff	4f	4c	12A
12ee	.	.	12G
12ff	.	.	12A
12gg	12e	4c	12B-
12ff	12f	.	12A
12ee	12g	.	12G
12ff	4f	4c	4A
12gg	.	.	.
12ff	.	.	.
12ee-	4f	4c	4A
12dd	.	.	.
12ee-	.	.	.
=54	=54	=54	=54
12dd	4f	4d	4B-
12ee-	.	.	.
12ee	.	.	.
12ff	2.r	2.r	2.r
12ff#	.	.	.
12gg	.	.	.
12aa	.	.	.
12bb-	.	.	.
12gg	.	.	.
12aa	.	.	.
12bb-	.	.	.
12gg	.	.	.
=55	=55	=55	=55
2ff	4a	2.c	4c
.	2ff	.	4c
2gg	.	.	4C
.	4ee	4B-	4C
=56	=56	=56	=56
[1ff	4ff	2A	4F
.	4r	.	4F
.	12b-	2d	4F
.	12a	.	.
.	12b-	.	.
.	12dd	.	4F
.	12cc	.	.
.	12b-	.	.
=57	=57	=57	=57
1ff_	4a	4c	4F
.	4r	4r	4F
.	12g	12B-	4F
.	12f#	12A	.
.	12g	12B-	.
.	12b-	12d	4F
.	12a	12c	.
.	12g	12B-	.
=58	=58	=58	=58
4.ff]	4.a	4A	4F
.	.	4f	4F
16gg	16b-	.	.
16aa	16cc	.	.
12bb-	4dd	4d	4F
12aa	.	.	.
12bb-	.	.	.
12ddd	4ee	4B-	4F
12ccc	.	.	.
12bb-	.	.	.
=59	=59	=59	=59
12aa	4ff	4c	4F
12ccc	.	.	.
12bb-	.	.	.
12aa	4r	4r	4r
12gg	.	.	.
12ff	.	.	.
12ee	4r	4r	4r
12dd	.	.	.
12cc	.	.	.
12b-	4b- 4ee	4g	4C
12a	.	.	.
12g	.	.	.
=60	=60	=60	=60
4f	4ff 4a	4f	4FF
4a 4ff	4f 4A	4F	4F
2r	2r	2r	2r
=61	=61	=61	=61
1r	1r	1r	4DD
.	.	.	4DD
.	.	.	4DD
.	.	.	4DD
=62	=62	=62	=62
1r	1r	1r	4DD
.	.	.	4DD
.	.	.	4DD
.	.	.	4DD
=63	=63	=63	=63
1ee- 1f#	[2a	[2c	4DD
.	.	.	4DD
.	8a]	8c]	4DD
.	16b-	16d	.
.	16cc	16e-	.
.	8b-	8d	4DD
.	8a	8c	.
=64	=64	=64	=64
4dd 4g	4b-	4B-	4DD
2.r	2.r	2.r	4DD
.	.	.	4DD
.	.	.	4DD
=65	=65	=65	=65
1dd- 1e	[2g	1B-	4DD
.	.	.	4DD
.	8g]	.	4DD
.	16a	.	.
.	16b-	.	.
.	8a	.	4DD
.	8g	.	.
=66	=66	=66	=66
2.d 2.dd	1f#	4A	4DD
.	.	4d	2.r
.	.	4d	.
4cc	.	4d	.
=67	=67	=67	=67
1b	[2f	[2d	[1GG
.	8f]	8d]	.
.	16g	16e-	.
.	16a-	16f	.
.	8g	8e-	.
.	8f	8d	.
=68	=68	=68	=68
2cc	1e-	1c	2GG]
2b-	.	.	2GG-
=69	=69	=69	=69
1a	[2e-	[2c	[1FF
.	8e-]	8c]	.
.	16f	16d-	.
.	16g	16e-	.
.	8f	8d-	.
.	8e-	8c	.
=70	=70	=70	=70
2b-	[1d-	[1B-	2FF]
2a-	.	.	2FF-
=71	=71	=71	=71
1g	2d-_	2B-_	1EE-
.	8d-]	8B-]	.
.	16e-	16c	.
.	16f	16d-	.
.	8e-	8c	.
.	8d-]	8B-]	.
=72	=72	=72	=72
[2a-	4c	4A-	4AA-
.	4cc	4e-	2.r
8a-]	4cc	4e-	.
16b-	.	.	.
16cc	.	.	.
8b-	4cc	4e-	.
8a-	.	.	.
=73	=73	=73	=73
4g	4b-	4e-	[2D-
2.r	4b-	4e-	.
.	4b-	4e-	8D-]
.	.	.	16E-
.	.	.	16F
.	4b-	4e-	8E-
.	.	.	8D-
=74	=74	=74	=74
[2aa-	4cc	4e-	4C
.	4cc	4e-	2.r
8aa-]	4cc	4e-	.
16bb-	.	.	.
16ccc	.	.	.
8bb-	4cc	4e-	.
8aa-	.	.	.
=75	=75	=75	=75
4gg	4b-	4e-	[2DD-
2.r	4b-	4e-	.
.	4b-	4e-	8DD-]
.	.	.	16EE-
.	.	.	16FF
.	4b-	4e-	8EE-
.	.	.	8DD-
=76	=76	=76	=76
[2a-	4cc	4e-	4CC
.	4cc	4e-	2.r
8a-]	4cc	4e-	.
16b-	.	.	.
16cc	.	.	.
8b-	4cc	4e-	.
8a-	.	.	.
=77	=77	=77	=77
[2g	4dd-	4e	[2B-
.	4dd-	4e	.
8g]	4dd-	4e	8B-]
16a-	.	.	16c
16b-	.	.	16d-
8a-	4dd-	4e	8c
8g	.	.	8B-
=78	=78	=78	=78
4f	4cc	4f	4A-
2.r	4f	4A-	2.r
.	4f	4A-	.
.	4f	4A-	.
=79	=79	=79	=79
1r	4f	4A-	4r
.	4f	4A-	4C
.	4f	4A-	4AA-
.	4f	4A-	4FF
=80	=80	=80	=80
[2dd-	4f	4A-	4DD-
.	4f	4A-	2.r
8dd-]	4f	4A-	.
16ee-	.	.	.
16ff	.	.	.
8ee-	4f	4A-	.
8dd-	.	.	.
=81	=81	=81	=81
4cc	4e-	4A-	[2GG-
2.r	4e-	4A-	.
.	4e-	4A-	8GG-]
.	.	.	16AA-
.	.	.	16BB-
.	4e-	4A-	8AA-
.	.	.	8GG-
=82	=82	=82	=82
[2ddd-	4f	4A-	4FF
.	4f	4A-	2.r
8ddd-]	4f	4A-	.
16eee-	.	.	.
16fff	.	.	.
8eee-	4f	4A-	.
8ddd-	.	.	.
=83	=83	=83	=83
4ccc	4e-	4A-	[2G-
2.r	4e-	4A-	.
.	4e-	4A-	8G-]
.	.	.	16A-
.	.	.	16B-
.	4e-	4A-	8A-
.	.	.	8G-
=84	=84	=84	=84
[2dd-	4f	4A-	4F
.	4a-	4f	2.r
8dd-]	4a-	4f	.
16ee-	.	.	.
16ff	.	.	.
8ee-	4a-	4f	.
8dd-	.	.	.
=85	=85	=85	=85
[2cc	4a-	4e-	1r
.	4a-	4e-	.
8cc]	4a-	4e-	.
16dd-	.	.	.
16ee-	.	.	.
8dd-	4a-	4e-	.
8cc	.	.	.
=86	=86	=86	=86
2b-	4a-	4d	1r
.	4a-	4d	.
12b-]	4a-	4d	.
12a-	.	.	.
12b-	.	.	.
12cc	4a-	4d	.
12b-	.	.	.
12a-	.	.	.
=87	=87	=87	=87
12g	4g	4e-	4E-
12bb-	.	.	.
12aa-	.	.	.
12gg	4r	4r	4r
12ff	.	.	.
12ee-	.	.	.
12dd	4r	4r	4r
12cc	.	.	.
12b-	.	.	.
12a-	12f	4d	4BB-
12g	12e-	.	.
12f	12d	.	.
=88	=88	=88	=88
4e-	12e-	12e-	4E-
.	12b-	12g	.
.	12a-	12f	.
2.r	12g	12e-	4r
.	12f	12d	.
.	12e-	12c	.
.	12d	12B-	4r
.	12c	12A-	.
.	12B-	12G	.
.	12A-	12F	4BB-
.	12G	12E-	.
.	12A-	12D	.
=89	=89	=89	=89
12e- 12G	4G	12E-	4E-
12bb-	.	12E-	.
12aa-	.	12F	.
12gg	4r	12G	4r
12ff	.	12A-	.
12ee-	.	12B-	.
12dd	4r	12c	4r
12cc	.	12d	.
12b-	.	12e-	.
12a-	12d	12f	4BB-
12g	12e-	12e-	.
12f	12f	12d	.
=90	=90	=90	=90
4e-	4g	4e-	12EE-
.	.	.	12GG
.	.	.	12AA-
2.r	4ee-	4g	12BB-
.	.	.	12C
.	.	.	12D
.	4ee-	4g	12E-
.	.	.	12F
.	.	.	12G
.	4ee-	4g	12F
.	.	.	12E-
.	.	.	12D
=91	=91	=91	=91
4r	4ee-	4g	12C
.	.	.	12E-
.	.	.	12F
4gg	4ee-	2.r	12G
.	.	.	12A
.	.	.	12B
4gg	4ee-	.	12c
.	.	.	12d
.	.	.	12e-
4gg	4ee-	.	12d
.	.	.	12c
.	.	.	12B-
=92	=92	=92	=92
4ff#	4ee-	1r	12A
.	.	.	12B-
.	.	.	12c
8gg	4dd	.	12B-
.	.	.	12A
16ff#	.	.	.
.	.	.	12G
16gg	.	.	.
4aa	4cc	.	12F#
.	.	.	12G
.	.	.	12A
4cc	4a	.	12D
.	.	.	12E
.	.	.	12F#
=93	=93	=93	=93
4b-	4b-	4r	12GG
.	.	.	12BB-
.	.	.	12C
4gg	2.r	4b-	12D
.	.	.	12E
.	.	.	12F#
4gg	.	4b-	12G
.	.	.	12d
.	.	.	12c
4gg	.	4b-	12B-
.	.	.	12A
.	.	.	12G
=94	=94	=94	=94
[1gg	12r	1cc	1e-
.	12b	.	.
.	12cc	.	.
.	12ee-	.	.
.	12b	.	.
.	12cc	.	.
.	12ee-	.	.
.	12b	.	.
.	12cc	.	.
.	12ee-	.	.
.	12b	.	.
.	12cc	.	.
=95	=95	=95	=95
12gg]	1g	1cc#	1E-
12ff#	.	.	.
12gg	.	.	.
12bb-	.	.	.
12ff#	.	.	.
12gg	.	.	.
12bb-	.	.	.
12ff#	.	.	.
12gg	.	.	.
12bb-	.	.	.
12aa	.	.	.
12gg	.	.	.
=96	=96	=96	=96
12ff#	4f#	4dd	4D
12dd	.	.	.
12ddd	.	.	.
12ddd	4b-	12g	2.r
12bb-	.	12b-	.
12gg	.	12dd	.
12ff#	4a	4d	.
12dd	.	.	.
12ddd	.	.	.
12ddd	4b-	12g	.
12bb-	.	12b-	.
12gg	.	12dd	.
=97	=97	=97	=97
12ff#	4a	4d	4D
12dd	.	.	.
12ddd	.	.	.
12ddd	4b-	12g	4r
12bb-	.	12b-	.
12gg	.	12dd	.
12ff#	4a	4d	4r
12dd	.	.	.
12ddd	.	.	.
12ddd	[4g	4B-	[4B-
12bb-	.	.	.
12gg	.	.	.
=98	=98	=98	=98
12ee-	4g]	2c	4B-]
12cc	.	.	.
12ccc	.	.	.
12ccc	2f	.	2A
12aa	.	.	.
12ff	.	.	.
12dd	.	2B-	.
12b-	.	.	.
12bb-	.	.	.
12bb-	[4e-	.	[4G
12gg	.	.	.
12ee-	.	.	.
=99	=99	=99	=99
12cc	4e-]	2A	4G]
12a	.	.	.
12aa	.	.	.
12aa	2d	.	4F#
12ff#	.	.	.
12cc	.	.	.
12b-	.	4B-	4G
12g	.	.	.
12dd	.	.	.
12dd	4g	4d	4BB-
12b-	.	.	.
12g	.	.	.
=100	=100	=100	=100
12e-	2a-	2e-	2C
12a-	.	.	.
12cc	.	.	.
12ee-	.	.	.
12cc	.	.	.
12a-	.	.	.
12f	2b	2f	2D
12b	.	.	.
12dd	.	.	.
12ff	.	.	.
12dd	.	.	.
12b	.	.	.
=101	=101	=101	=101
12g	2cc	2g	2E-
12cc	.	.	.
12ee-	.	.	.
12gg	.	.	.
12ee-	.	.	.
12cc	.	.	.
12g	2cc#	4b-	2EE-
12gg	.	.	.
12aa	.	.	.
12bb-	.	4g	.
12aa	.	.	.
12gg	.	.	.
=102	=102	=102	=102
12ddd	4dd	4d	4DD
12bb-	.	.	.
12gg	.	.	.
12dd	12B-	4d	4D
12b-	12d	.	.
12g	12g	.	.
2a	2f#	4d	4D
.	.	4d	4D
=103	=103	=103	=103
4g	4g	4G	4GG
2.r	2.r	4g	2.r
.	.	4g	.
.	.	4g	.
=104	=104	=104	=104
1r	1r	4g	1r
.	.	4g	.
.	.	4g	.
.	.	4g	.
=105	=105	=105	=105
1r	[2a-	4g	2c
.	.	4g	.
.	8a-]	4f	2d
.	16b-	.	.
.	16cc	.	.
.	8b-	4f	.
.	8a-	.	.
=106	=106	=106	=106
[2dd	4g	4f	[2B
.	4g	4f	.
8dd]	4g	4f	8B]
16ee-	.	.	16c
16ff	.	.	16d
8ee-	4g	4f	8c
8dd	.	.	8B
=107	=107	=107	=107
[2ee-	4g	4e-	2c
.	4g	4e-	.
8ee-]	4g-	4c	2B-
8dd	.	.	.
8ee-	4g-	4c	.
8dd	.	.	.
=108	=108	=108	=108
[2cc	4f	4c	[2A
.	4f	4c	.
8cc]	4f	4c	8A]
16dd	.	.	16B-
16ee-	.	.	16c
8dd	4f	4c	8B-
8cc	.	.	8A
=109	=109	=109	=109
4dd	4f	4B-	4B-
2.r	2.r	2.r	4BB-
.	.	.	4BB-
.	.	.	4BB-
=110	=110	=110	=110
[2gg	[2ee-	1b-	4BB-
.	.	.	4BB-
8gg]	8ee-]	.	4BB-
16aa	16ff	.	.
16bb-	16gg	.	.
8aa	8ff	.	4BB-
8gg	8ee-	.	.
=111	=111	=111	=111
4ff	4dd	4B-	4BB-
2r	4r	2.r	2.r
.	4r	.	.
12bb-	12d	.	.
12ccc	12e-	.	.
12ddd	12f	.	.
=112	=112	=112	=112
12ccc	12e-	1r	2.r
12bb-	12d	.	.
12aa	12c	.	.
4bb-	4d	.	.
4r	2r	.	.
12ddd	.	.	12B-
12eee-	.	.	12c
12fff	.	.	12d
=113	=113	=113	=113
12eee-	1r	1r	12c
12ddd	.	.	12B-
12ccc	.	.	12A
4ddd	.	.	4B-
4r	.	.	2r
12ddd	.	.	.
12eee-	.	.	.
12fff	.	.	.
=114	=114	=114	=114
12eee-	1a	2.c	2.F
12ddd	.	.	.
12ccc	.	.	.
12bb-	.	.	.
12aa	.	.	.
12gg	.	.	.
4ff	.	.	.
8ee-	.	4a	4F#
16dd	.	.	.
16ee-	.	.	.
=115	=115	=115	=115
2ee-	2cc	2a	2.G
4dd	4b-	4b-	.
12b	4r	4r	4r
12cc	.	.	.
12ee-	.	.	.
=116	=116	=116	=116
12gg	1g	[1c	2.E-
12ff	.	.	.
12ee-	.	.	.
12dd	.	.	.
12cc	.	.	.
12b	.	.	.
12cc	.	.	.
12dd	.	.	.
12cc	.	.	.
12b-	.	.	4E
12a	.	.	.
12g	.	.	.
=117	=117	=117	=117
12a	4c	4c]	2F
12b-	.	.	.
12cc	.	.	.
12b-	2.r	2.r	.
12a	.	.	.
12g	.	.	.
12f	.	.	2r
12g	.	.	.
12f	.	.	.
12e-	.	.	.
12d	.	.	.
12c	.	.	.
=118	=118	=118	=118
4B-	1r	12d	12B-
.	.	12e-	12c
.	.	12f	12d
2.r	.	12e-	12c
.	.	12d	12B-
.	.	12c	12A
.	.	12B-	12G
.	.	12c	12A
.	.	12d	12B-
.	.	12c	12A
.	.	12B-	12G
.	.	12A	12F
=119	=119	=119	=119
12gg	4r	4G	4E-
12aa	.	.	.
12bb-	.	.	.
12aa	4e-	2.r	2.r
12gg	.	.	.
12ff	.	.	.
12ee-	4g	.	.
12ff	.	.	.
12gg	.	.	.
12ff	4b	.	.
12ee-	.	.	.
12dd	.	.	.
=120	=120	=120	=120
4cc	4cc	12e-	12c
.	.	12f	12d
.	.	12g	12e-
2.r	2.r	12f	12d
.	.	12e-	12c
.	.	12d	12B-
.	.	12c	12A
.	.	12d	12B-
.	.	12e-	12c
.	.	12d	12B-
.	.	12c	12A
.	.	12B-	12G
=121	=121	=121	=121
12ccc	12a	2.A	2.F
12ddd	12b-	.	.
12eee-	12cc	.	.
12ddd	12b-	.	.
12ccc	12a	.	.
12bb-	12g	.	.
12aa	12f	.	.
12bb-	12g	.	.
12ccc	12a	.	.
12bb-	12g	4B-	4G
12aa	12f	.	.
12gg	12e	.	.
=122	=122	=122	=122
12ff	[1f	1c	1A
12gg	.	.	.
12ff	.	.	.
12ee-	.	.	.
12dd	.	.	.
12cc	.	.	.
12b-	.	.	.
12a	.	.	.
12g	.	.	.
12f	.	.	.
12g	.	.	.
12e-	.	.	.
=123	=123	=123	=123
12d	8f]	8d	8B-
12f	.	.	.
.	8r	8r	8r
12b-	.	.	.
12d	8b	8a-	8d
12f	.	.	.
.	8r	8r	8r
12b	.	.	.
12cc	8cc	8g	8e-
12g	.	.	.
.	8r	8r	8r
12e-	.	.	.
12d	8dd	8g	8B
12b	.	.	.
.	8r	8r	8r
12dd	.	.	.
=124	=124	=124	=124
12ee-	8ee-	8g	8c
12cc	.	.	.
.	8r	8r	8r
12g	.	.	.
12ee	8ee	8g	8B-
12cc	.	.	.
.	8r	8r	8r
12g	.	.	.
12f	8ff	8f	8A
12cc	.	.	.
.	8r	8r	8r
12ff	.	.	.
12e-	8aa	8cc	8e-
12cc	.	.	.
.	8r	8r	8r
12aa	.	.	.
=125	=125	=125	=125
12d	8bb-	8b-	8d
12b-	.	.	.
.	8r	8r	8r
12bb-	.	.	.
12gg	8gg	8ee-	8e-
12ee-	.	.	.
.	8r	8r	8r
12cc	.	.	.
12ff	8ff	8dd	8f
12dd	.	.	.
.	8r	8r	8r
12b-	.	.	.
12ee-	8ee-	8cc	8F
12cc	.	.	.
.	8r	8r	8r
12a	.	.	.
=126	=126	=126	=126
1bb-	12dd	12b-	4B-
.	12ee-	12cc	.
.	12ff	12dd	.
.	12ee-	12cc	2.r
.	12dd	12b-	.
.	12cc	12a	.
.	12b-	12g	.
.	12cc	12a	.
.	12dd	12b-	.
.	12cc	12a	.
.	12b-	12g	.
.	12a	12f	.
=127	=127	=127	=127
4bb-	1g	2.e	12C
.	.	.	12E
.	.	.	12F
4bb-	.	.	12G
.	.	.	12A
.	.	.	12B
4bb-	.	.	12c
.	.	.	12e
.	.	.	12f
4bb-	.	4c	12g
.	.	.	12f
.	.	.	12e
=128	=128	=128	=128
12aa-	[1a-	[1f	4f
12bb-	.	.	.
12ccc	.	.	.
12bb-	.	.	2.r
12aa-	.	.	.
12gg	.	.	.
12ff	.	.	.
12gg	.	.	.
12aa-	.	.	.
12gg	.	.	.
12ff	.	.	.
12ee-	.	.	.
=129	=129	=129	=129
[2dd	1a-]	2f]	12BB-
.	.	.	12D
.	.	.	12E-
.	.	.	12F
.	.	.	12G
.	.	.	12A
12dd]	.	2B-	12B-
12ff	.	.	12d
12gg	.	.	12e-
12aa-	.	.	12f
12gg	.	.	12e-
12ff	.	.	12d
=130	=130	=130	=130
12gg	[1g	[1e-	1e-
12aa-	.	.	.
12bb-	.	.	.
12aa-	.	.	.
12gg	.	.	.
12ff	.	.	.
12ee-	.	.	.
12ff	.	.	.
12gg	.	.	.
12ff	.	.	.
12ee-	.	.	.
12dd	.	.	.
=131	=131	=131	=131
12cc	1g]	2e-]	2.E-
12ee-	.	.	.
12dd	.	.	.
12cc	.	.	.
12ee-	.	.	.
12ff	.	.	.
12gg	.	2c	.
12ff	.	.	.
12ee-	.	.	.
12dd	.	.	4E
12cc	.	.	.
12b-	.	.	.
=132	=132	=132	=132
12a	[1e- 1a	[1c	[1F
12cc	.	.	.
12b-	.	.	.
12a	.	.	.
12ee-	.	.	.
12dd	.	.	.
12cc	.	.	.
12aa	.	.	.
12gg	.	.	.
12ff	.	.	.
12ccc	.	.	.
12bb-	.	.	.
=133	=133	=133	=133
12aa	1e- 1a]	1c]	1F_
12eee-	.	.	.
12ccc	.	.	.
12aa	.	.	.
12eee-	.	.	.
12ccc	.	.	.
12aa	.	.	.
12ccc	.	.	.
12aa	.	.	.
12ff	.	.	.
12gg	.	.	.
12ee-	.	.	.
=134	=134	=134	=134
12dd	12d 12b-	12d	1F_
12bb-	12ff	12dd	.
12bb-	12ff	12dd	.
12bb-	12ff	12dd	.
12aa	12ee-	12cc	.
12gg	12dd	12b-	.
12ff	12cc	12a	.
12gg	12dd	12b-	.
12gg	12dd	12b-	.
12gg	12dd	12b-	.
12ff	12cc	12a	.
12ee-	12b-	12g	.
=135	=135	=135	=135
12dd	12a	12f	1F_
12ee-	12b-	12g	.
12ee-	12b-	12g	.
12ee-	12b-	12g	.
12dd	12a	12f	.
12cc	12g	12e-	.
12b-	4f	12d	.
12a	.	12c	.
12b-	.	12d	.
12cc	4f	12e-	.
12b-	.	12d	.
12a	.	12c	.
=136	=136	=136	=136
4b-	12b-	12d	1F]
.	12a	12c	.
.	12b-	12d	.
2.r	12cc	12e-	.
.	12b-	12d	.
.	12a	12c	.
.	12b-	12d	.
.	12a	12c	.
.	12b-	12d	.
.	12cc	12e-	.
.	12b-	12d	.
.	12a	12c	.
=137	=137	=137	=137
12ddd	12b-	4d	12B-
12ccc	12ff	.	12A
12ddd	12ff	.	12B-
12eee-	12ff	2.r	12c
12ddd	12ff	.	12B-
12ccc	12ff	.	12A
12ddd	12ff	.	12B-
12ccc	12ff	.	12A
12ddd	12ff	.	12B-
12eee-	12ff	.	12c
12ddd	12ff	.	12B-
12ccc	12ff	.	12A
=138	=138	=138	=138
12ddd	2ff	1b-	12B-
12eee-	.	.	12c
12fff	.	.	12d
12ddd	.	.	12B-
12eee-	.	.	12c
12fff	.	.	12d
12gg	2gg	.	2E-
12aa	.	.	.
12bb-	.	.	.
12ccc	.	.	.
12ddd	.	.	.
12eee-	.	.	.
=139	=139	=139	=139
2ff	4a	4cc	4E-
.	2b-	4b-	4D
2ccc	.	4g	4E-
.	4a	8f	4F
.	.	8e-	.
=140	=140	=140	=140
12bb-	1b-	2d	1G
12ddd	.	.	.
12ccc	.	.	.
12bb-	.	.	.
12aa	.	.	.
12gg	.	.	.
12ff	.	4e	.
12ee	.	.	.
12gg	.	.	.
12bb-	.	4g	.
12gg	.	.	.
12ee	.	.	.
=141	=141	=141	=141
12ff	1cc	[1f	1A
12gg	.	.	.
12ff	.	.	.
12ee-	.	.	.
12dd	.	.	.
12cc	.	.	.
12b-	.	.	.
12a	.	.	.
12g	.	.	.
12f	.	.	.
12g	.	.	.
12e-	.	.	.
=142	=142	=142	=142
12d	2b-	4f]	4B-
12ff	.	.	.
12ff	.	.	.
12ff	.	4f	4d
12dd	.	.	.
12b-	.	.	.
12a	8.cc	4f	4e-
12f	.	.	.
12ff	.	.	.
.	16a	.	.
12ff	4b-	4f	4d
12dd	.	.	.
12b-	.	.	.
=143	=143	=143	=143
12a	8.cc	4f	4e-
12f	.	.	.
12ff	.	.	.
.	16a	.	.
12ff	4b-	4f	4d
12dd	.	.	.
12b-	.	.	.
12a	8.cc	4f	4e-
12f	.	.	.
12ff	.	.	.
.	16a	.	.
12ff	12b-	4f	4d
12dd	12dd	.	.
12b-	12ff	.	.
=144	=144	=144	=144
4g	4gg	4e-	4e-
4gg	4e-	4r	4r
4r	4r	4r	4r
4cc	[4b-	4e	4e
=145	=145	=145	=145
4dd	4b-]	4f	4f
2ee-	2a	2cc	2f#
4dd	4b-	4b-	4g
=146	=146	=146	=146
4.cc	4.g	4r	4e-
.	.	4g	4E-
16dd	16f	.	.
16ee-	16e-	.	.
4b-	4d	4f	4F
4a	4c	4e-	4F
=147	=147	=147	=147
4cc	12a	4e-	1r
.	12f	.	.
.	12ff	.	.
4dd	12ff	4d	.
.	12dd	.	.
.	12b-	.	.
4cc	12a	4e-	.
.	12f	.	.
.	12ff	.	.
4dd	12ff	4d	.
.	12dd	.	.
.	12b-	.	.
=148	=148	=148	=148
8aa 8cc	8ee-	8f	12FF
.	.	.	12F
8r	8r	8r	.
.	.	.	12F
8bb- 8b-	8dd	8f	12F
.	.	.	12D
8r	8r	8r	.
.	.	.	12BB-
8cc 8aa	8ee-	8f	12FF
.	.	.	12F
8r	8r	8r	.
.	.	.	12F
8bb- 8b-	8dd	8f	12F
.	.	.	12D
8r	8r	8r	.
.	.	.	12BB-
=149	=149	=149	=149
4gg 4b-	4cc	4g	4E-
4r	4r	4r	4r
4e- 4a	4a 4e-	4c	4F
4r	4r	4r	4r
=150	=150	=150	=150
4b- 4d	4b- 4d	4d	4BB-
2.r	2.r	2.r	4BB-
.	.	.	4BB-
.	.	.	4BB-
=151	=151	=151	=151
1r	1r	1r	4BB-
.	.	.	4BB-
.	.	.	4BB-
.	.	.	4BB-
=152	=152	=152	=152
[2ee-	1a	1c	4BB-
.	.	.	4BB-
8ee-]	.	.	4BB-
16ff	.	.	.
16gg	.	.	.
8ff	.	.	4BB-
8ee-	.	.	.
=153	=153	=153	=153
4dd	4b-	4d	4BB-
2.r	2.r	2.r	4BB-
.	.	.	4BB-
.	.	.	4BB-
=154	=154	=154	=154
[2cc	1e-	1A	4BB-
.	.	.	4BB-
8cc]	.	.	4BB-
16dd	.	.	.
16ee-	.	.	.
8dd	.	.	4BB-
8cc	.	.	.
=155	=155	=155	=155
4b-	4d	4B-	4BB-
2.r	2.r	2.r	4BB-
.	.	.	4BB-
.	.	.	4BB-
=156	=156	=156	=156
[2g	1d-	1e	4BB-
.	.	.	4BB-
8g]	.	.	4BB-
16a	.	.	.
16b-	.	.	.
8a	.	.	4BB-
8g	.	.	.
=157	=157	=157	=157
2f	2c	4f	2AA
.	.	4A	.
4e-	4B-	4G	4GG
4d	4A	4F	4FF
=158	=158	=158	=158
4.c	4.G	2E-	4EE-
.	.	.	4EE-
16d	8c	.	.
16e-	.	.	.
4B-	4B-	4D	4FF
4c	4A	4e-	4FF
=159	=159	=159	=159
4B-	4B-	12d	12BB-
.	.	12b-	12BB-
.	.	12a	12BB-
2.r	2.r	12g	12BB-
.	.	12f	12BB-
.	.	12e-	12BB-
.	.	12d	12BB-
.	.	12c	12BB-
.	.	12B-	12BB-
.	.	12A	12BB-
.	.	12G	12BB-
.	.	12F	12BB-
=160	=160	=160	=160
1a	[2c	1E-	12BB-
.	.	.	12BB-
.	.	.	12BB-
.	.	.	12BB-
.	.	.	12BB-
.	.	.	12BB-
.	8c]	.	12BB-
.	.	.	12BB-
.	16d	.	.
.	.	.	12BB-
.	16e-	.	.
.	8d	.	12BB-
.	.	.	12BB-
.	8c	.	.
.	.	.	12BB-
=161	=161	=161	=161
12b-	4d	4D	12BB-
12bb-	.	.	12BB-
12aa	.	.	12BB-
12gg	2.r	2.r	12BB-
12ff	.	.	12BB-
12ee-	.	.	12BB-
12dd	.	.	12BB-
12cc	.	.	12BB-
12b-	.	.	12BB-
12a	.	.	12BB-
12g	.	.	12BB-
12f	.	.	12BB-
=162	=162	=162	=162
1e-	[2A	[2c	12BB-
.	.	.	12BB-
.	.	.	12BB-
.	.	.	12BB-
.	.	.	12BB-
.	.	.	12BB-
.	8A]	8c]	12BB-
.	.	.	12BB-
.	16B-	16d	.
.	.	.	12BB-
.	16c	16e-	.
.	8B-	8d	12BB-
.	.	.	12BB-
.	8A	8c	.
.	.	.	12BB-
=163	=163	=163	=163
4d	4B-	4B-	4BB-
4r	4r	4r	4r
4B-	4d	4F	4BB-
4r	4r	4r	4r
=164	=164	=164	=164
4B-	4d	4F	4BB-
2.r	2.r	2.r	2.r
==	==	==	==
*-	*-	*-	*-
!!!RWG1: This file contains only pitch and duration data.
!!!RWG2: Transposing instruments are not transposed.
!!!RWG3: Spines may have incompatible meters.
!!!RWG4: Durations of rests and tied notes may be interpreted.
!!!RWG: Key is interpreted using the Humdrum key tool.
!!!GTL: 6 Quartetti ("Prussian")
!!!AFT: stage1
!!!END: 1997/04/15
!!format changes:
!!content changes:
!!public access: complete
!!!KEY: 3736590082
!!!EMD: Converted from MuseData to Humdrum Dec 16, 2000, by Andreas Kornstaedt using muse2kern.
